src/images/app-icons/dark-theme/Db2DataGate.svg

<svg xmlns="http://www.w3.org/2000/svg" viewBox="0 0 32 32"><defs><linearGradient id="Db2DataGate_svg__a" x1="23.5" y1="25" x2="23.5" y2="10" gradientUnits="userSpaceOnUse"><stop offset=".4" stop-color="#fff"/><stop offset="1" stop-color="#fff" stop-opacity="0"/></linearGradient><linearGradient id="Db2DataGate_svg__b" x1="7.5" y1="19" x2="7.5" y2="5" gradientUnits="userSpaceOnUse"><stop offset="0" stop-color="#fff" stop-opacity="0"/><stop offset=".6" stop-color="#fff"/></linearGradient><linearGradient id="Db2DataGate_svg__d" y1="32" x2="32" gradientUnits="userSpaceOnUse"><stop offset=".1" stop-color="#be95ff"/><stop offset=".9" stop-color="#4589ff"/></linearGradient><mask id="Db2DataGate_svg__c" x="0" y="0" width="32" height="32" maskUnits="userSpaceOnUse"><path d="M28 21.205V10h-2v13h-7v2h7a2.005 2.005 0 002-2z" fill="url(#Db2DataGate_svg__a)"/><path d="M6 5a2 2 0 00-2 2v12h2V7h5V5z" fill="url(#Db2DataGate_svg__b)"/><path fill="#fff" d="M21.22 28.243L16.978 24l4.242-4.243 1.414 1.414L19.806 24l2.828 2.829-1.414 1.414zM28 2H12a2 2 0 00-2 2v4a2 2 0 002 2h16a2 2 0 002-2V4a2 2 0 00-2-2zm0 6H12V4h16z"/></mask></defs><g data-name="Layer 2"><g data-name="Dark theme icons"><g mask="url(#Db2DataGate_svg__c)"><path fill="url(#Db2DataGate_svg__d)" d="M0 0h32v32H0z"/></g><circle cx="15" cy="6" r="1" fill="#f4f4f4"/><path d="M5 20a4 4 0 104 4 4 4 0 00-4-4zm0 6a2 2 0 112-2 2 2 0 01-2 2zM13 22a2 2 0 102 2 2 2 0 00-2-2z" fill="#f4f4f4"/></g></g></svg>

<svg xmlns="http://www.w3.org/2000/svg" xmlns:xlink="http://www.w3.org/1999/xlink" viewBox="0 0 32 32"><defs><style>.cls-1{fill:url(#linear-gradient);}.cls-2{fill:url(#linear-gradient-2);}.cls-3{fill:#fff;}.cls-4{mask:url(#mask);}.cls-5{fill:url(#linear-gradient-3);}.cls-6{fill:#f4f4f4;}</style><linearGradient id="linear-gradient" x1="23.5" y1="25" x2="23.5" y2="10" gradientUnits="userSpaceOnUse"><stop offset="0.4" stop-color="#fff"/><stop offset="1" stop-color="#fff" stop-opacity="0"/></linearGradient><linearGradient id="linear-gradient-2" x1="7.5" y1="19" x2="7.5" y2="5" gradientUnits="userSpaceOnUse"><stop offset="0" stop-color="#fff" stop-opacity="0"/><stop offset="0.6" stop-color="#fff"/></linearGradient><mask id="mask" x="0" y="0" width="32" height="32" maskUnits="userSpaceOnUse"><path class="cls-1" d="M28,21.205h0V10H26V21.25L26,23H19v2h7a2.005,2.005,0,0,0,2-2h0v0h0Z"/><path class="cls-2" d="M6,5A2,2,0,0,0,4,7V8.6H4V19H6V12H6L6,7h5V5Z"/><polygon class="cls-3" points="21.22 28.243 16.978 24 21.22 19.757 22.634 21.171 19.806 24 22.634 26.829 21.22 28.243"/><path class="cls-3" d="M28,2H12a2,2,0,0,0-2,2V8a2,2,0,0,0,2,2H28a2,2,0,0,0,2-2V4A2,2,0,0,0,28,2Zm0,6H12V4H28Z"/></mask><linearGradient id="linear-gradient-3" y1="32" x2="32" gradientUnits="userSpaceOnUse"><stop offset="0.1" stop-color="#be95ff"/><stop offset="0.9" stop-color="#4589ff"/></linearGradient></defs><g id="Layer_2" data-name="Layer 2"><g id="Dark_theme_icons" data-name="Dark theme icons"><g class="cls-4"><rect class="cls-5" width="32" height="32"/></g><circle class="cls-6" cx="15" cy="6" r="1"/><path class="cls-6" d="M5,20a4,4,0,1,0,4,4A4,4,0,0,0,5,20Zm0,6a2,2,0,1,1,2-2A2,2,0,0,1,5,26Z"/><path class="cls-6" d="M13,22a2,2,0,1,0,2,2,2,2,0,0,0-2-2Z"/></g></g></svg>
